X:107
T:New Ridg Ship,The. JBs.107
T:New RiggÂ’d Ship. JBs.107
S:Jas.Blackshaw MS, 1837, N.Shropshire
A:North Shropshire
Z:T. Weatherall 2006
M:6/8
L:1/8
Q:3/8=120
R:Jig
K:F
c|f2af2a|f2ff2a|gec ccâ€™a|gec cde|!
f2af2a|f2ff2a|gec ege|f2ff2:|!
|:a|câ€™2acâ€™2a|f2f facâ€™|dâ€™2bdâ€™2b|g2g gab|!
câ€™2acâ€™2a|f2ff2c|def ege|f2ff2:|

